X:65
C:Page 33
T:Lady Montgomery’s Reel. MBe.65
S:Matthew Betham MS, Towcett Cumbria, 1815
O:England;Cumbria;Towcett
Z:VMP – Hugh Taylor, 2012
M:C
L:1/8
Q:1/2=100
R:.Reel
C:Colonel Hugh Montgomerie, 12th Earl of Eglintoun
N:NB1-As well as the ‘d’ note being dotted, both notes are written as semiquavers.
N:NB2-The 2 ‘d’ notes and the ‘A’ note are all written tied.
N:NB3-The ‘f’ note is not written dotted.
K:Em
d2 d>A F>GAF|d2 “^NB1″d>B cdef|”^NB2″d2 d>A F>GAF|EeeB c>def:|
|:d<dad f<d a2|d<ead f<ga>b|d<da>d f>da>d|g>fe>d c>de>f|
dda>d “^NB3″f>d a2|d<dag f<ga>b|g>f g<e f<de>c|d>BA>F E>e e<f:|

